X: 3111
T: Lady L Ramsay's Reel
C: by Nath:Gow.
%R: reel
B: Niel Gow & Sons "A Third Collection of Strathspey Reels, etc." v.3 p.11 #1
Z: 2022 John Chambers <jc:trillian.mit.edu>
M: C|
L: 1/8
K: Bb
% - - - - - - - - - -
V: 1 staves=2
e |\
Td2(.f.d) ecce | Td2fd gefe | Td2(.f.d) ecge | dBcA TB2B :| B | (AB)GB FBdB | F>BdB cCTC>B |
(AB)GB FBdB | FBAc T.B2Bd || (AB)GB FBDB | FBdB cCTC>E | DFBF TG>ABg | fdec TB2B |]
% - - - - - - - - - -
% Voice 2 preserves the staff layout in the book.
V: 2 clef=bass middle=d
z | B2b2 F2f2 | B2b2 e2b2 | B2b2 F2A2 | B2f2 B2B :| z | f2e2 d2B2 | d2B2 F2F2 |
f2e2 d2B2 | f2F2 B2B2 || f2e2 d2B2 | d2B2 F2F2 | B2B2 e2e2 | f2F2 B2B |]
